tools/download-figma-icons/icons/outlined-large/connector-others.svg

<svg width="64" height="64" viewBox="0 0 64 64" fill="none" xmlns="http://www.w3.org/2000/svg">
<path d="M50.5 21.0033H48V4.84076C48 2.17034 45.83 0 43.16 0H42.85C40.18 0 38.01 2.17034 38.01 4.84076V21.0033H27.01V4.84076C27.01 2.17034 24.84 0 22.17 0H21.86C19.19 0 17.02 2.17034 17.02 4.84076V21.0033H14.52C12.04 21.0033 10.02 23.0236 10.02 25.504V41.4165C10.02 42.4666 10.39 43.4868 11.06 44.2969L19.67 54.6285C19.89 54.8986 20.02 55.2386 20.02 55.5887V59.4993C20.02 61.9797 22.04 64 24.52 64H40.52C43 64 45.02 61.9797 45.02 59.4993V55.5887C45.02 55.2386 45.14 54.8986 45.37 54.6285L53.98 44.2969C54.65 43.4868 55.02 42.4666 55.02 41.4165V25.504C55.02 23.0236 53 21.0033 50.52 21.0033H50.5ZM41 4.84076C41 3.8206 41.83 3.00047 42.84 3.00047H43.15C44.17 3.00047 44.99 3.8306 44.99 4.84076V21.0033H40.99V4.84076H41ZM20 4.84076C20 3.8206 20.83 3.00047 21.84 3.00047H22.15C23.17 3.00047 23.99 3.8306 23.99 4.84076V21.0033H19.99V4.84076H20ZM52 41.4165C52 41.7665 51.88 42.1066 51.65 42.3766L43.04 52.7082C42.37 53.5184 42 54.5385 42 55.5887V59.4993C42 60.3294 41.33 60.9995 40.5 60.9995H24.5C23.67 60.9995 23 60.3294 23 59.4993V55.5887C23 54.5385 22.63 53.5184 21.96 52.7082L13.35 42.3766C13.13 42.1066 13 41.7665 13 41.4165V25.504C13 24.6739 13.67 24.0037 14.5 24.0037H50.5C51.33 24.0037 52 24.6739 52 25.504V41.4165Z" fill="black"/>
<path d="M42.5 33.0049H22.5C21.67 33.0049 21 33.6749 21 34.5049C21 35.3349 21.67 36.0049 22.5 36.0049H42.5C43.33 36.0049 44 35.3349 44 34.5049C44 33.6749 43.33 33.0049 42.5 33.0049Z" fill="black"/>
<path d="M40.5 41.0068H24.5C23.67 41.0068 23 41.6768 23 42.5068C23 43.3368 23.67 44.0068 24.5 44.0068H40.5C41.33 44.0068 42 43.3368 42 42.5068C42 41.6768 41.33 41.0068 40.5 41.0068Z" fill="black"/>
</svg>

<svg xmlns="http://www.w3.org/2000/svg" width="64" height="64" fill="none" viewBox="0 0 64 64"><path fill="currentColor" d="M50.5 21.003H48V4.841A4.844 4.844 0 0 0 43.16 0h-.31c-2.67 0-4.84 2.17-4.84 4.84v16.163h-11V4.841A4.844 4.844 0 0 0 22.17 0h-.31c-2.67 0-4.84 2.17-4.84 4.84v16.163h-2.5c-2.48 0-4.5 2.02-4.5 4.501v15.912c0 1.05.37 2.07 1.04 2.88l8.61 10.333c.22.27.35.61.35.96v3.91c0 2.48 2.02 4.501 4.5 4.501h16c2.48 0 4.5-2.02 4.5-4.5v-3.911c0-.35.12-.69.35-.96l8.61-10.332c.67-.81 1.04-1.83 1.04-2.88V25.504c0-2.48-2.02-4.5-4.5-4.5zM41 4.841C41 3.82 41.83 3 42.84 3h.31c1.02 0 1.84.83 1.84 1.84v16.162h-4V4.841zm-21 0C20 3.82 20.83 3 21.84 3h.31c1.02 0 1.84.83 1.84 1.84v16.162h-4V4.841zm32 36.576c0 .35-.12.69-.35.96l-8.61 10.331c-.67.81-1.04 1.83-1.04 2.88V59.5c0 .83-.67 1.5-1.5 1.5h-16c-.83 0-1.5-.67-1.5-1.5v-3.91c0-1.05-.37-2.07-1.04-2.88l-8.61-10.332a1.53 1.53 0 0 1-.35-.96V25.504c0-.83.67-1.5 1.5-1.5h36c.83 0 1.5.67 1.5 1.5z"/><path fill="currentColor" d="M42.5 33.005h-20c-.83 0-1.5.67-1.5 1.5s.67 1.5 1.5 1.5h20c.83 0 1.5-.67 1.5-1.5s-.67-1.5-1.5-1.5m-2 8.002h-16c-.83 0-1.5.67-1.5 1.5s.67 1.5 1.5 1.5h16c.83 0 1.5-.67 1.5-1.5s-.67-1.5-1.5-1.5"/></svg>
